icons/dark/jsx.svg

<svg width="16" height="16" viewBox="0 0 16 16" fill="none" xmlns="http://www.w3.org/2000/svg">
<path d="M2 2H14V14H2V2ZM2.78867 12.082C3.02533 12.584 3.492 13 4.29533 13C5.18467 13 5.79467 12.5267 5.79467 11.4867V8.05733H4.79V11.472C4.79 11.974 4.582 12.1033 4.252 12.1033C3.908 12.1033 3.764 11.8667 3.60667 11.5867L2.78867 12.082ZM6.34 11.974C6.63333 12.5553 7.23667 13 8.16933 13C9.12267 13 9.83333 12.5053 9.83333 11.6013C9.83333 10.7613 9.35267 10.3887 8.49867 10.0227L8.248 9.916C7.81733 9.72933 7.63133 9.60667 7.63133 9.30533C7.63133 9.062 7.818 8.87533 8.11133 8.87533C8.39867 8.87533 8.58467 8.99733 8.75733 9.30533L9.53933 8.80333C9.20933 8.22267 8.75 8 8.112 8C7.21533 8 6.64133 8.57333 6.64133 9.32667C6.64133 10.1447 7.12133 10.5327 7.84667 10.8407L8.09733 10.9487C8.55667 11.1487 8.82867 11.2713 8.82867 11.6153C8.82867 11.902 8.56333 12.1107 8.14733 12.1107C7.65267 12.1107 7.37267 11.852 7.15733 11.5007L6.34 11.974ZM11.6747 9.246L11.12 8H10.12L11.1747 10.3687L10.0033 13H11.0033L11.6753 11.492L12.3467 13H13.3467L12.1747 10.3687L13.23 8H12.23L11.6753 9.246H11.6747Z" fill="#C5C5C5"/>
</svg>

<svg xmlns="http://www.w3.org/2000/svg" width="16" height="16" fill="none" xmlns:v="https://vecta.io/nano"><path d="M2 2h12v12H2V2zm.789 10.082c.237.502.703.918 1.507.918.889 0 1.499-.473 1.499-1.513V8.057H4.79v3.415c0 .502-.208.631-.538.631-.344 0-.488-.237-.645-.517l-.818.495zm3.551-.108c.293.581.897 1.026 1.829 1.026.953 0 1.664-.495 1.664-1.399 0-.84-.481-1.213-1.335-1.579l-.251-.107c-.431-.187-.617-.309-.617-.611 0-.243.187-.43.48-.43.287 0 .473.122.646.43l.782-.502C9.209 8.223 8.75 8 8.112 8c-.897 0-1.471.573-1.471 1.327 0 .818.48 1.206 1.205 1.514l.251.108c.459.2.731.323.731.667 0 .287-.265.495-.681.495-.495 0-.775-.259-.99-.61l-.817.473zm5.335-2.728L11.12 8h-1l1.055 2.369L10.003 13h1l.672-1.508.671 1.508h1l-1.172-2.631L13.23 8h-1l-.555 1.246h-.001z" fill="#c5c5c5"/></svg>
